img/svg/icon-font/eye-open.svg

<svg width="22" height="22" viewBox="0 0 22 22" fill="none" xmlns="http://www.w3.org/2000/svg">
<path fill-rule="evenodd" clip-rule="evenodd" d="M15.5101 9.06381C16.9855 9.80559 18.3087 10.9353 19.3204 12.4529L20.1679 13.7241C20.4742 14.1836 21.0951 14.3078 21.5546 14.0014C22.0141 13.6951 22.1383 13.0742 21.8319 12.6147L20.9845 11.3435C16.2347 4.21882 5.76532 4.21882 1.0155 11.3435L0.168054 12.6147C-0.138295 13.0742 -0.0141225 13.6951 0.445402 14.0014C0.904926 14.3078 1.52579 14.1836 1.83214 13.7241L2.67958 12.4529C3.68265 10.9483 4.99182 9.82501 6.45195 9.08299C6.16254 9.71402 6.00113 10.4155 6.00113 11.1539C6.00113 13.9022 8.23707 16.1382 10.9855 16.1382C11.4988 16.1382 12.0053 16.0603 12.4909 15.9066C12.9434 15.7634 13.1941 15.2805 13.0509 14.828C12.9077 14.3755 12.4246 14.1248 11.9722 14.268C11.6546 14.3685 11.3226 14.4195 10.9855 14.4195C9.18482 14.4195 7.71986 12.9546 7.71986 11.1539C7.71986 9.71156 8.65978 8.48464 9.95926 8.05345C10.637 7.9836 11.3208 7.98219 11.9988 8.04921C13.3049 8.47656 14.251 9.70681 14.251 11.1539C14.251 11.4668 14.207 11.776 14.1202 12.0728C13.987 12.5284 14.2483 13.0056 14.7038 13.1389C15.1594 13.2721 15.6366 13.0108 15.7699 12.5553C15.9025 12.1017 15.9698 11.6302 15.9698 11.1539C15.9698 10.408 15.8051 9.69979 15.5101 9.06381Z" fill="#4C51CB"/>
</svg>

<svg width="22" height="22" fill="none" xmlns="http://www.w3.org/2000/svg"><path fill-rule="evenodd" clip-rule="evenodd" d="M15.51 9.064a9.923 9.923 0 013.81 3.389l.848 1.271a1 1 0 101.664-1.11l-.848-1.27c-4.75-7.125-15.219-7.125-19.969 0l-.847 1.27a1 1 0 101.664 1.11l.848-1.271a9.925 9.925 0 013.772-3.37 4.955 4.955 0 00-.45 2.07 4.99 4.99 0 006.489 4.754.86.86 0 10-.519-1.639 3.27 3.27 0 01-4.252-3.114c0-1.442.94-2.67 2.24-3.1.677-.07 1.36-.072 2.039-.005a3.271 3.271 0 012.121 4.024.86.86 0 001.65.482 4.992 4.992 0 00-.26-3.491z" fill="#4C51CB"/></svg>
